;FLAVOR:Marlin
;TIME:1703
;Filament used: 2.34079m
;Layer height: 0.3
;MINX:89.347
;MINY:89.335
;MINZ:0.3
;MAXX:129.7
;MAXY:130.665
;MAXZ:40.05
;Generated with Cura_SteamEngine 4.6.1
M140 S50
M105
M190 S50
M104 S200
M105
M109 S200
M82 ;absolute extrusion mode
M201 X500.00 Y500.00 Z100.00 E5000.00 ;Setup machine max acceleration
M203 X500.00 Y500.00 Z10.00 E50.00 ;Setup machine max feedrate
M204 P500.00 R1000.00 T500.00 ;Setup Print/Retract/Travel acceleration
M205 X8.00 Y8.00 Z0.40 E5.00 ;Setup Jerk
M220 S100 ;Reset Feedrate
M221 S100 ;Reset Flowrate

G28 ;Home

G92 E0 ;Reset Extruder
G1 Z2.0 F3000 ;Move Z Axis up
G1 X10.1 Y20 Z0.28 F5000.0 ;Move to start position
G1 X10.1 Y200.0 Z0.28 F1500.0 E15 ;Draw the first line
G1 X10.4 Y200.0 Z0.28 F5000.0 ;Move to side a little
G1 X10.4 Y20 Z0.28 F1500.0 E30 ;Draw the second line
G92 E0 ;Reset Extruder
G1 Z2.0 F3000 ;Move Z Axis up

G92 E0
G92 E0
G1 F2700 E-5
;LAYER_COUNT:133
;LAYER:0
M107
;MESH:cube-40-40-40.stl
G0 F7500 X90.3 Y129.7 Z0.3
;TYPE:WALL-OUTER
G1 F2700 E0
G1 F1500 X90.3 Y90.3 E2.94851
G1 X129.7 Y90.3 E5.89702
G1 X129.7 Y129.7 E8.84553
G1 X90.3 Y129.7 E11.79404
G0 F7500 X90.89 Y129.11
;TYPE:SKIN
G1 F1500 X90.89 Y90.89 E14.65425
G1 X129.11 Y90.89 E17.51445
G1 X129.11 Y129.11 E20.37466
G1 X90.89 Y129.11 E23.23487
G0 F7500 X91.534 Y128.869
G1 F1500 X91.129 Y128.465 E23.27767
G0 F7500 X91.129 Y127.616
G1 F1500 X92.382 Y128.869 E23.41028
G0 F7500 X93.231 Y128.869
G1 F1500 X91.129 Y126.767 E23.63274
G0 F7500 X91.129 Y125.919
G1 F1500 X94.079 Y128.869 E23.94495
G0 F7500 X94.928 Y128.869
G1 F1500 X91.129 Y125.07 E24.34701
G0 F7500 X91.129 Y124.222
G1 F1500 X95.776 Y128.869 E24.83882
G0 F7500 X96.625 Y128.869
G1 F1500 X91.129 Y123.373 E25.42048
G0 F7500 X91.129 Y122.525
G1 F1500 X97.473 Y128.869 E26.09188
G0 F7500 X98.322 Y128.869
G1 F1500 X91.129 Y121.676 E26.85314
G0 F7500 X91.129 Y120.828
G1 F1500 X99.171 Y128.869 E27.7042
G0 F7500 X100.019 Y128.869
G1 F1500 X91.129 Y119.979 E28.64505
G0 F7500 X91.129 Y119.131
G1 F1500 X100.868 Y128.869 E29.67571
G0 F7500 X101.716 Y128.869
G1 F1500 X91.129 Y118.282 E30.79616
G0 F7500 X91.129 Y117.434
G1 F1500 X102.565 Y128.869 E32.00642
G0 F7500 X103.413 Y128.869
G1 F1500 X91.129 Y116.585 E33.30647
G0 F7500 X91.129 Y115.737
G1 F1500 X104.262 Y128.869 E34.69633
G0 F7500 X105.11 Y128.869
G1 F1500 X91.129 Y114.888 E36.17598
G0 F7500 X91.129 Y114.04
G1 F1500 X105.959 Y128.869 E37.74543
G0 F7500 X106.807 Y128.869
G1 F1500 X91.129 Y113.191 E39.40468
G0 F7500 X91.129 Y112.343
G1 F1500 X107.656 Y128.869 E41.15373
G0 F7500 X108.504 Y128.869
G1 F1500 X91.129 Y111.494 E42.99258
G0 F7500 X91.129 Y110.645
G1 F1500 X109.353 Y128.869 E44.92128
G0 F7500 X110.201 Y128.869
G1 F1500 X91.129 Y109.797 E46.93973
G0 F7500 X91.129 Y108.948
G1 F1500 X111.05 Y128.869 E49.04803
G0 F7500 X111.898 Y128.869
G1 F1500 X91.129 Y108.1 E51.24608
G0 F7500 X91.129 Y107.251
G1 F1500 X112.747 Y128.869 E53.53398
G0 F7500 X113.595 Y128.869
G1 F1500 X91.129 Y106.403 E55.91163
G0 F7500 X91.129 Y105.554
G1 F1500 X114.444 Y128.869 E58.37913
G0 F7500 X115.293 Y128.869
G1 F1500 X91.129 Y104.706 E60.93643
G0 F7500 X91.129 Y103.857
G1 F1500 X116.141 Y128.869 E63.58352
G0 F7500 X116.99 Y128.869
G1 F1500 X91.129 Y103.009 E66.32042
G0 F7500 X91.129 Y102.16
G1 F1500 X117.838 Y128.869 E69.14712
G0 F7500 X118.687 Y128.869
G1 F1500 X91.129 Y101.312 E72.06361
G0 F7500 X91.129 Y100.463
G1 F1500 X119.535 Y128.869 E75.06991
G0 F7500 X120.384 Y128.869
G1 F1500 X91.129 Y99.615 E78.166
G0 F7500 X91.129 Y98.766
G1 F1500 X121.232 Y128.869 E81.3519
G0 F7500 X122.081 Y128.869
G1 F1500 X91.129 Y97.918 E84.62759
G0 F7500 X91.129 Y97.069
G1 F1500 X122.929 Y128.869 E87.99308
G0 F7500 X123.778 Y128.869
G1 F1500 X91.129 Y96.22 E91.44843
G0 F7500 X91.129 Y95.372
G1 F1500 X124.626 Y128.869 E94.99352
G0 F7500 X125.475 Y128.869
G1 F1500 X91.129 Y94.523 E98.62846
G0 F7500 X91.129 Y93.675
G1 F1500 X126.323 Y128.869 E102.35315
G0 F7500 X127.172 Y128.869
G1 F1500 X91.129 Y92.826 E106.16769
G0 F7500 X91.129 Y91.978
G1 F1500 X128.02 Y128.869 E110.07198
G0 F7500 X128.869 Y128.869
G1 F1500 X91.129 Y91.129 E114.06612
G0 F7500 X91.978 Y91.129
G1 F1500 X128.869 Y128.02 E117.97041
G0 F7500 X128.869 Y127.172
G1 F1500 X92.826 Y91.129 E121.78496
G0 F7500 X93.675 Y91.129
G1 F1500 X128.869 Y126.323 E125.50965
G0 F7500 X128.869 Y125.475
G1 F1500 X94.523 Y91.129 E129.14459
G0 F7500 X95.372 Y91.129
G1 F1500 X128.869 Y124.626 E132.68968
G0 F7500 X128.869 Y123.778
G1 F1500 X96.22 Y91.129 E136.14503
G0 F7500 X97.069 Y91.129
G1 F1500 X128.869 Y122.929 E139.51052
G0 F7500 X128.869 Y122.081
G1 F1500 X97.918 Y91.129 E142.78621
G0 F7500 X98.766 Y91.129
G1 F1500 X128.869 Y121.232 E145.97211
G0 F7500 X128.869 Y120.384
G1 F1500 X99.615 Y91.129 E149.0682
G0 F7500 X100.463 Y91.129
G1 F1500 X128.869 Y119.535 E152.0745
G0 F7500 X128.869 Y118.687
G1 F1500 X101.312 Y91.129 E154.99099
G0 F7500 X102.16 Y91.129
G1 F1500 X128.869 Y117.838 E157.81769
G0 F7500 X128.869 Y116.99
G1 F1500 X103.009 Y91.129 E160.55458
G0 F7500 X103.857 Y91.129
G1 F1500 X128.869 Y116.141 E163.20168
G0 F7500 X128.869 Y115.293
G1 F1500 X104.706 Y91.129 E165.75898
G0 F7500 X105.554 Y91.129
G1 F1500 X128.869 Y114.444 E168.22648
G0 F7500 X128.869 Y113.595
G1 F1500 X106.403 Y91.129 E170.60413
G0 F7500 X107.251 Y91.129
G1 F1500 X128.869 Y112.747 E172.89203
G0 F7500 X128.869 Y111.898
G1 F1500 X108.1 Y91.129 E175.09007
G0 F7500 X108.948 Y91.129
G1 F1500 X128.869 Y111.05 E177.19837
G0 F7500 X128.869 Y110.201
G1 F1500 X109.797 Y91.129 E179.21682
G0 F7500 X110.645 Y91.129
G1 F1500 X128.869 Y109.353 E181.14553
G0 F7500 X128.869 Y108.504
G1 F1500 X111.494 Y91.129 E182.98438
G0 F7500 X112.343 Y91.129
G1 F1500 X128.869 Y107.656 E184.73343
G0 F7500 X128.869 Y106.807
G1 F1500 X113.191 Y91.129 E186.39268
G0 F7500 X114.04 Y91.129
G1 F1500 X128.869 Y105.959 E187.96213
G0 F7500 X128.869 Y105.11
G1 F1500 X114.888 Y91.129 E189.44178
G0 F7500 X115.737 Y91.129
G1 F1500 X128.869 Y104.262 E190.83164
G0 F7500 X128.869 Y103.413
G1 F1500 X116.585 Y91.129 E192.13169
G0 F7500 X117.434 Y91.129
G1 F1500 X128.869 Y102.565 E193.34194
G0 F7500 X128.869 Y101.716
G1 F1500 X118.282 Y91.129 E194.4624
G0 F7500 X119.131 Y91.129
G1 F1500 X128.869 Y100.868 E195.49305
G0 F7500 X128.869 Y100.019
G1 F1500 X119.979 Y91.129 E196.43391
G0 F7500 X120.828 Y91.129
G1 F1500 X128.869 Y99.171 E197.28497
G0 F7500 X128.869 Y98.322
G1 F1500 X121.676 Y91.129 E198.04623
G0 F7500 X122.525 Y91.129
G1 F1500 X128.869 Y97.473 E198.71763
G0 F7500 X128.869 Y96.625
G1 F1500 X123.373 Y91.129 E199.29929
G0 F7500 X124.222 Y91.129
G1 F1500 X128.869 Y95.776 E199.7911
G0 F7500 X128.869 Y94.928
G1 F1500 X125.07 Y91.129 E200.19316
G0 F7500 X125.919 Y91.129
G1 F1500 X128.869 Y94.079 E200.50536
G0 F7500 X128.869 Y93.231
G1 F1500 X126.767 Y91.129 E200.72782
G0 F7500 X127.616 Y91.129
G1 F1500 X128.869 Y92.382 E200.86043
G0 F7500 X128.869 Y91.534
G1 F1500 X128.465 Y91.129 E200.90324
G1 F2700 E195.90324
;MESH:NONMESH
G0 F300 X128.465 Y91.129 Z0.6
G0 F7500 X128.465 Y90.55
G0 X93.3 Y90.61
G0 X93.3 Y89.335
G0 X89.347 Y89.347
G0 X89.347 Y130.653
G0 X93.3 Y130.665
G0 X93.3 Y126.7
;TIME_ELAPSED:122.286927
;LAYER:1
M140 S50
M106 S127.5
;TYPE:WALL-INNER
;MESH:cube-40-40-40.stl
G1 F2700 E200.90324
G1 F2550 X93.3 Y93.3 E203.40274
G1 X126.7 Y93.3 E205.90224
G1 X126.7 Y126.7 E208.40174
G1 X93.3 Y126.7 E210.90124
G0 F10650 X92.7 Y127.3
G1 F2550 X92.7 Y92.7 E213.49054
G1 X127.3 Y92.7 E216.07984
G1 X127.3 Y127.3 E218.66914
G1 X92.7 Y127.3 E221.25845
G0 F10650 X92.1 Y127.9
G1 F2550 X92.1 Y92.1 E223.93755
G1 X127.9 Y92.1 E226.61665
G1 X127.9 Y127.9 E229.29576
G1 X92.1 Y127.9 E231.97486
G0 F10650 X91.5 Y128.5
G1 F2550 X91.5 Y91.5 E234.74377
G1 X128.5 Y91.5 E237.51267
G1 X128.5 Y128.5 E240.28158
G1 X91.5 Y128.5 E243.05049
G0 F10650 X90.9 Y129.1
G1 F2550 X90.9 Y90.9 E245.90919
G1 X129.1 Y90.9 E248.7679
G1 X129.1 Y129.1 E251.62661
G1 X90.9 Y129.1 E254.48532
G0 F10650 X90.3 Y129.7
;TYPE:WALL-OUTER
G1 F2550 X90.3 Y90.3 E257.43383
G1 X129.7 Y90.3 E260.38234
G1 X129.7 Y129.7 E263.33085
G1 X90.3 Y129.7 E266.27936
G0 F10650 X90.67 Y129.33
G0 X93.51 Y126.11
G0 X93.89 Y126.11
;TYPE:SKIN
G1 F1650 X93.89 Y93.89 E268.69056
G1 X126.11 Y93.89 E271.10175
G1 X126.11 Y126.11 E273.51294
G1 X93.89 Y126.11 E275.92414
G1 F2700 E270.92414
G0 F10650 X93.51 Y126.11
G0 X93.51 Y94.243
G0 X94.13 Y94.243
G1 F2700 E275.92414
G1 F1650 X94.243 Y94.129 E275.93615
G0 F10650 X95.092 Y94.129
G1 F1650 X94.13 Y95.091 E276.03796
G0 F10650 X94.13 Y95.94
G1 F1650 X95.94 Y94.129 E276.22957
G0 F10650 X96.789 Y94.129
G1 F1650 X94.13 Y96.788 E276.51098
G0 F10650 X94.13 Y97.637
G1 F1650 X97.638 Y94.129 E276.88225
G0 F10650 X98.486 Y94.129
G1 F1650 X94.13 Y98.485 E277.34325
G0 F10650 X94.13 Y99.334
G1 F1650 X99.335 Y94.129 E277.89412
G0 F10650 X100.183 Y94.129
G1 F1650 X94.13 Y100.182 E278.53472
G0 F10650 X94.13 Y101.031
G1 F1650 X101.032 Y94.129 E279.26518
G0 F10650 X101.88 Y94.129
G1 F1650 X94.13 Y101.879 E280.08539
G0 F10650 X94.13 Y102.728
G1 F1650 X102.729 Y94.129 E280.99545
G0 F10650 X103.577 Y94.129
G1 F1650 X94.13 Y103.577 E281.99531
G0 F10650 X94.13 Y104.425
G1 F1650 X104.426 Y94.129 E283.08496
G0 F10650 X105.274 Y94.129
G1 F1650 X94.13 Y105.274 E284.26442
G0 F10650 X94.13 Y106.122
G1 F1650 X106.123 Y94.129 E285.53368
G0 F10650 X106.971 Y94.129
G1 F1650 X94.13 Y106.971 E286.89273
G0 F10650 X94.13 Y107.819
G1 F1650 X107.82 Y94.129 E288.34159
G0 F10650 X108.668 Y94.129
G1 F1650 X94.13 Y108.668 E289.88024
G0 F10650 X94.13 Y109.516
G1 F1650 X109.517 Y94.129 E291.5087
G0 F10650 X110.365 Y94.129
G1 F1650 X94.13 Y110.365 E293.22695
G0 F10650 X94.13 Y111.213
G1 F1650 X111.214 Y94.129 E295.035
G0 F10650 X112.062 Y94.129
G1 F1650 X94.13 Y112.062 E296.93286
G0 F10650 X94.13 Y112.91
G1 F1650 X112.911 Y94.129 E298.92051
G0 F10650 X113.76 Y94.129
G1 F1650 X94.13 Y113.759 E300.99801
G0 F10650 X94.13 Y114.607
G1 F1650 X114.608 Y94.129 E303.16526
G0 F10650 X115.457 Y94.129
G1 F1650 X94.13 Y115.456 E305.42236
G0 F10650 X94.13 Y116.304
G1 F1650 X116.305 Y94.129 E307.76921
G0 F10650 X117.154 Y94.129
G1 F1650 X94.13 Y117.153 E310.20591
G0 F10650 X94.13 Y118.001
G1 F1650 X118.002 Y94.129 E312.73236
G0 F10650 X118.851 Y94.129
G1 F1650 X94.13 Y118.85 E315.34866
G0 F10650 X94.13 Y119.699
G1 F1650 X119.699 Y94.129 E318.05476
G0 F10650 X120.548 Y94.129
G1 F1650 X94.13 Y120.547 E320.85066
G0 F10650 X94.13 Y121.396
G1 F1650 X121.396 Y94.129 E323.73636
G0 F10650 X122.245 Y94.129
G1 F1650 X94.13 Y122.244 E326.71186
G0 F10650 X94.13 Y123.093
G1 F1650 X123.093 Y94.129 E329.77715
G0 F10650 X123.942 Y94.129
G1 F1650 X94.13 Y123.941 E332.93225
G0 F10650 X94.13 Y124.79
G1 F1650 X124.79 Y94.129 E336.17715
G0 F10650 X125.639 Y94.129
G1 F1650 X94.13 Y125.638 E339.51184
G0 F10650 X94.747 Y125.869
G1 F1650 X125.869 Y94.748 E342.80553
G0 F10650 X125.869 Y95.596
G1 F1650 X95.595 Y125.869 E346.00946
G0 F10650 X96.444 Y125.869
G1 F1650 X125.869 Y96.445 E349.12355
G0 F10650 X125.869 Y97.293
G1 F1650 X97.292 Y125.869 E352.14789
G0 F10650 X98.141 Y125.869
G1 F1650 X125.869 Y98.142 E355.08238
G0 F10650 X125.869 Y98.99
G1 F1650 X98.989 Y125.869 E357.92712
G0 F10650 X99.838 Y125.869
G1 F1650 X125.869 Y99.839 E360.68201
G0 F10650 X125.869 Y100.687
G1 F1650 X100.687 Y125.869 E363.3471
G0 F10650 X101.535 Y125.869
G1 F1650 X125.869 Y101.536 E365.92239
G0 F10650 X125.869 Y102.384
G1 F1650 X102.384 Y125.869 E368.40788
G0 F10650 X103.232 Y125.869
G1 F1650 X125.869 Y103.233 E370.80357
G0 F10650 X125.869 Y104.081
G1 F1650 X104.081 Y125.869 E373.10946
G0 F10650 X104.929 Y125.869
G1 F1650 X125.869 Y104.93 E375.32555
G0 F10650 X125.869 Y105.778
G1 F1650 X105.778 Y125.869 E377.45184
G0 F10650 X106.626 Y125.869
G1 F1650 X125.869 Y106.627 E379.48834
G0 F10650 X125.869 Y107.475
G1 F1650 X107.475 Y125.869 E381.43503
G0 F10650 X108.323 Y125.869
G1 F1650 X125.869 Y108.324 E383.29193
G0 F10650 X125.869 Y109.173
G1 F1650 X109.172 Y125.869 E385.05897
G0 F10650 X110.02 Y125.869
G1 F1650 X125.869 Y110.021 E386.73626
G0 F10650 X125.869 Y110.87
G1 F1650 X110.869 Y125.869 E388.32371
G0 F10650 X111.717 Y125.869
G1 F1650 X125.869 Y111.718 E389.82141
G0 F10650 X125.869 Y112.567
G1 F1650 X112.566 Y125.869 E391.22925
G0 F10650 X113.414 Y125.869
G1 F1650 X125.869 Y113.415 E392.54735
G0 F10650 X125.869 Y114.264
G1 F1650 X114.263 Y125.869 E393.77559
G0 F10650 X115.112 Y125.869
G1 F1650 X125.869 Y115.112 E394.91404
G0 F10650 X125.869 Y115.961
G1 F1650 X115.96 Y125.869 E395.96269
G0 F10650 X116.809 Y125.869
G1 F1650 X125.869 Y116.809 E396.92154
G0 F10650 X125.869 Y117.658
G1 F1650 X117.657 Y125.869 E397.79058
G0 F10650 X118.506 Y125.869
G1 F1650 X125.869 Y118.506 E398.56983
G0 F10650 X125.869 Y119.355
G1 F1650 X119.354 Y125.869 E399.25928
G0 F10650 X120.203 Y125.869
G1 F1650 X125.869 Y120.203 E399.85893
G0 F10650 X125.869 Y121.052
G1 F1650 X121.051 Y125.869 E400.36878
G0 F10650 X121.9 Y125.869
G1 F1650 X125.869 Y121.9 E400.78884
G0 F10650 X125.869 Y122.749
G1 F1650 X122.748 Y125.869 E401.11909
G0 F10650 X123.597 Y125.869
G1 F1650 X125.869 Y123.598 E401.35949
G0 F10650 X125.869 Y124.446
G1 F1650 X124.445 Y125.869 E401.51014
G0 F10650 X125.294 Y125.869
G1 F1650 X125.869 Y125.295 E401.57094
G0 F10650 X126.99 Y125.295
G1 F2700 E396.57094
;MESH:NONMESH
G0 F300 X126.99 Y125.295 Z0.9
G0 F10650 X126.418 Y126.418
G0 X90.67 Y129.33
G0 X90.3 Y129.7
;TIME_ELAPSED:220.096105
;LAYER:2
M106 S255
;TYPE:WALL-OUTER
;MESH:cube-40-40-40.stl
G1 F2700 E401.57094
G1 F3600 X90.3 Y90.3 E404.51945
G1 X129.7 Y90.3 E407.46797
G1 X129.7 Y129.7 E410.41648
G1 X90.3 Y129.7 E413.36499
G0 F13800 X90.89 Y129.11
;TYPE:SKIN
G1 F1800 X90.89 Y90.89 E416.22519
G1 X129.11 Y90.89 E419.0854
G1 X129.11 Y129.11 E421.9456
G1 X90.89 Y129.11 E424.80581
G0 F13800 X91.534 Y128.869
G1 F1800 X91.129 Y128.465 E424.84862
G0 F13800 X91.129 Y127.616
G1 F1800 X92.382 Y128.869 E424.98123
G0 F13800 X93.231 Y128.869
G1 F1800 X91.129 Y126.767 E425.20369
G0 F13800 X91.129 Y125.919
G1 F1800 X94.079 Y128.869 E425.5159
G0 F13800 X94.928 Y128.869
G1 F1800 X91.129 Y125.07 E425.91796
G0 F13800 X91.129 Y124.222
G1 F1800 X95.776 Y128.869 E426.40976
G0 F13800 X96.625 Y128.869
G1 F1800 X91.129 Y123.373 E426.99142
G0 F13800 X91.129 Y122.525
G1 F1800 X97.473 Y128.869 E427.66283
G0 F13800 X98.322 Y128.869
G1 F1800 X91.129 Y121.676 E428.42408
G0 F13800 X91.129 Y120.828
G1 F1800 X99.171 Y128.869 E429.27514
G0 F13800 X100.019 Y128.869
G1 F1800 X91.129 Y119.979 E430.216
G0 F13800 X91.129 Y119.131
G1 F1800 X100.868 Y128.869 E431.24665
G0 F13800 X101.716 Y128.869
G1 F1800 X91.129 Y118.282 E432.36711
G0 F13800 X91.129 Y117.434
G1 F1800 X102.565 Y128.869 E433.57736
G0 F13800 X103.413 Y128.869
G1 F1800 X91.129 Y116.585 E434.87742
G0 F13800 X91.129 Y115.737
G1 F1800 X104.262 Y128.869 E436.26727
G0 F13800 X105.11 Y128.869
G1 F1800 X91.129 Y114.888 E437.74692
G0 F13800 X91.129 Y114.04
G1 F1800 X105.959 Y128.869 E439.31637
G0 F13800 X106.807 Y128.869
G1 F1800 X91.129 Y113.191 E440.97562
G0 F13800 X91.129 Y112.343
G1 F1800 X107.656 Y128.869 E442.72468
G0 F13800 X108.504 Y128.869
G1 F1800 X91.129 Y111.494 E444.56353
G0 F13800 X91.129 Y110.645
G1 F1800 X109.353 Y128.869 E446.49223
G0 F13800 X110.201 Y128.869
G1 F1800 X91.129 Y109.797 E448.51068
G0 F13800 X91.129 Y108.948
G1 F1800 X111.05 Y128.869 E450.61898
G0 F13800 X111.898 Y128.869
G1 F1800 X91.129 Y108.1 E452.81703
G0 F13800 X91.129 Y107.251
G1 F1800 X112.747 Y128.869 E455.10493
G0 F13800 X113.595 Y128.869
G1 F1800 X91.129 Y106.403 E457.48257
G0 F13800 X91.129 Y105.554
G1 F1800 X114.444 Y128.869 E459.95007
G0 F13800 X115.293 Y128.869
G1 F1800 X91.129 Y104.706 E462.50737
G0 F13800 X91.129 Y103.857
