; generated by PrusaSlicer 2.2.0+win64 on 2020-04-29 at 21:25:32 UTC

; 

; external perimeters extrusion width = 0.60mm
; perimeters extrusion width = 0.60mm
; infill extrusion width = 0.60mm
; solid infill extrusion width = 0.60mm
; top infill extrusion width = 0.60mm
; first layer extrusion width = 0.60mm

M201 X1000 Y1000 Z1000 E5000 ; sets maximum accelerations, mm/sec^2
M203 X200 Y200 Z12 E120 ; sets maximum feedrates, mm/sec
M204 P1250 R1250 T1250 ; sets acceleration (P, T) and retract acceleration (R), mm/sec^2
M205 X5.00 Y5.00 Z0.40 E2.50 ; sets the jerk limits, mm/sec
M205 S0 T0 ; sets the minimum extruding and travel feed rate, mm/sec
M107
G28 Y0 X0 Z0  ;
M420 S1 ;Apply Mesh Level
M140 S60 ; set bed temp
M190 S60 ; wait for bed temp
M104 S210 ; set extruder temp
M109 S210 ; wait for extruder temp
;M300 S1000 P500 ; chirp
G1 Z5.0
G1 Y-3.0 X-3.0 F4000.0 ; go outside print area
G1 Z0.2 F300.0; 
G1 Y200 E15.0  F1000.0 ; intro line
G92 E0.0
G21 ; set units to millimeters
G90 ; use absolute coordinates
M82 ; use absolute distances for extrusion
G92 E0
; Filament gcode
G1 Z0.200 F13800.000
G1 E-5.00000 F2400.00000
G92 E0
G1 X90.400 Y90.400 F13800.000
G1 E5.00000 F2400.00000
G1 F1500.000
G1 X129.600 Y90.400 E6.85211
G1 X129.600 Y129.600 E8.70423
G1 X90.400 Y129.600 E10.55634
G1 X90.400 Y90.490 E12.40420
G1 E7.40420 F2400.00000
G92 E0
G1 X129.433 Y91.703 F13800.000
G1 E5.00000 F2400.00000
G1 F1500.000
G1 X128.548 Y90.818 E5.05963
G1 X127.753 Y90.818 E5.09747
G1 X129.182 Y92.247 E5.19372
G1 X129.182 Y93.041 E5.23156
G1 X126.959 Y90.818 E5.38133
G1 X126.165 Y90.818 E5.41917
G1 X129.182 Y93.835 E5.62245
G1 X129.182 Y94.630 E5.66029
G1 X125.370 Y90.818 E5.91708
G1 X124.576 Y90.818 E5.95492
G1 X129.182 Y95.424 E6.26522
G1 X129.182 Y96.218 E6.30306
G1 X123.782 Y90.818 E6.66687
G1 X122.988 Y90.818 E6.70471
G1 X129.182 Y97.012 E7.12204
G1 X129.182 Y97.807 E7.15988
G1 X122.193 Y90.818 E7.63071
G1 X121.399 Y90.818 E7.66855
G1 X129.182 Y98.601 E8.19290
G1 X129.182 Y99.395 E8.23074
G1 X120.605 Y90.818 E8.80860
G1 X119.810 Y90.818 E8.84644
G1 X129.182 Y100.190 E9.47782
G1 X129.182 Y100.984 E9.51565
G1 X119.016 Y90.818 E10.20054
G1 X118.222 Y90.818 E10.23838
G1 X129.182 Y101.778 E10.97678
G1 X129.182 Y102.573 E11.01462
G1 X117.427 Y90.818 E11.80653
G1 X116.633 Y90.818 E11.84436
G1 X129.182 Y103.367 E12.68979
G1 X129.182 Y104.161 E12.72762
G1 X115.839 Y90.818 E13.62656
G1 X115.044 Y90.818 E13.66440
G1 X129.182 Y104.956 E14.61684
G1 X129.182 Y105.750 E14.65468
G1 X114.250 Y90.818 E15.66064
G1 X113.456 Y90.818 E15.69848
G1 X129.182 Y106.544 E16.75795
G1 X129.182 Y107.339 E16.79579
G1 X112.661 Y90.818 E17.90877
G1 X111.867 Y90.818 E17.94660
G1 X129.182 Y108.133 E19.11310
G1 X129.182 Y108.927 E19.15094
G1 X111.073 Y90.818 E20.37094
G1 X110.278 Y90.818 E20.40878
G1 X129.182 Y109.722 E21.68230
G1 X129.182 Y110.516 E21.72014
G1 X109.484 Y90.818 E23.04717
G1 X108.690 Y90.818 E23.08500
G1 X129.182 Y111.310 E24.46554
G1 X129.182 Y112.104 E24.50338
G1 X107.896 Y90.818 E25.93744
G1 X107.101 Y90.818 E25.97527
G1 X129.182 Y112.899 E27.46284
G1 X129.182 Y113.693 E27.50068
G1 X106.307 Y90.818 E29.04175
G1 X105.513 Y90.818 E29.07959
G1 X129.182 Y114.487 E30.67418
G1 X129.182 Y115.282 E30.71202
G1 X104.718 Y90.818 E32.36012
G1 X103.924 Y90.818 E32.39796
G1 X129.182 Y116.076 E34.09957
G1 X129.182 Y116.870 E34.13741
G1 X103.130 Y90.818 E35.89253
G1 X102.335 Y90.818 E35.93037
G1 X129.182 Y117.665 E37.73901
G1 X129.182 Y118.459 E37.77685
G1 X101.541 Y90.818 E39.63900
G1 X100.747 Y90.818 E39.67683
G1 X129.182 Y119.253 E41.59249
G1 X129.182 Y120.048 E41.63033
G1 X99.952 Y90.818 E43.59951
G1 X99.158 Y90.818 E43.63734
G1 X129.182 Y120.842 E45.66003
G1 X129.182 Y121.636 E45.69787
G1 X98.364 Y90.818 E47.77406
G1 X97.569 Y90.818 E47.81190
G1 X129.182 Y122.431 E49.94161
G1 X129.182 Y123.225 E49.97945
G1 X96.775 Y90.818 E52.16267
G1 X95.981 Y90.818 E52.20051
G1 X129.182 Y124.019 E54.43724
G1 X129.182 Y124.814 E54.47508
G1 X95.186 Y90.818 E56.76532
G1 X94.392 Y90.818 E56.80316
G1 X129.182 Y125.608 E59.14691
G1 X129.182 Y126.402 E59.18475
G1 X93.598 Y90.818 E61.58202
G1 X92.804 Y90.818 E61.61986
G1 X129.182 Y127.196 E64.07064
G1 X129.182 Y127.991 E64.10847
G1 X92.009 Y90.818 E66.61277
G1 X91.215 Y90.818 E66.65060
G1 X129.182 Y128.785 E69.20841
G1 X129.182 Y129.182 E69.22732
G1 X128.785 Y129.182 E69.24625
G1 X90.818 Y91.215 E71.80404
G1 X90.818 Y92.009 E71.84188
G1 X127.991 Y129.182 E74.34616
G1 X127.196 Y129.182 E74.38400
G1 X90.818 Y92.804 E76.83477
G1 X90.818 Y93.598 E76.87261
G1 X126.402 Y129.182 E79.26987
G1 X125.608 Y129.182 E79.30771
G1 X90.818 Y94.392 E81.65146
G1 X90.818 Y95.187 E81.68929
G1 X124.813 Y129.182 E83.97953
G1 X124.019 Y129.182 E84.01737
G1 X90.818 Y95.981 E86.25409
G1 X90.818 Y96.775 E86.29193
G1 X123.225 Y129.182 E88.47514
G1 X122.430 Y129.182 E88.51298
G1 X90.818 Y97.570 E90.64268
G1 X90.818 Y98.364 E90.68052
G1 X121.636 Y129.182 E92.75671
G1 X120.842 Y129.182 E92.79455
G1 X90.818 Y99.158 E94.81722
G1 X90.818 Y99.952 E94.85506
G1 X120.048 Y129.182 E96.82422
G1 X119.253 Y129.182 E96.86206
G1 X90.818 Y100.747 E98.77771
G1 X90.818 Y101.541 E98.81555
G1 X118.459 Y129.182 E100.67769
G1 X117.665 Y129.182 E100.71553
G1 X90.818 Y102.335 E102.52416
G1 X90.818 Y103.130 E102.56200
G1 X116.870 Y129.182 E104.31711
G1 X116.076 Y129.182 E104.35495
G1 X90.818 Y103.924 E106.05656
G1 X90.818 Y104.718 E106.09440
G1 X115.282 Y129.182 E107.74249
G1 X114.487 Y129.182 E107.78033
G1 X90.818 Y105.513 E109.37491
G1 X90.818 Y106.307 E109.41275
G1 X113.693 Y129.182 E110.95382
G1 X112.899 Y129.182 E110.99165
G1 X90.818 Y107.101 E112.47921
G1 X90.818 Y107.896 E112.51705
G1 X112.104 Y129.182 E113.95109
G1 X111.310 Y129.182 E113.98893
G1 X90.818 Y108.690 E115.36947
G1 X90.818 Y109.484 E115.40730
G1 X110.516 Y129.182 E116.73432
G1 X109.721 Y129.182 E116.77216
G1 X90.818 Y110.279 E118.04567
G1 X90.818 Y111.073 E118.08351
G1 X108.927 Y129.182 E119.30351
G1 X108.133 Y129.182 E119.34135
G1 X90.818 Y111.867 E120.50783
G1 X90.818 Y112.662 E120.54567
G1 X107.338 Y129.182 E121.65864
G1 X106.544 Y129.182 E121.69648
G1 X90.818 Y113.456 E122.75594
G1 X90.818 Y114.250 E122.79378
G1 X105.750 Y129.182 E123.79973
G1 X104.956 Y129.182 E123.83757
G1 X90.818 Y115.044 E124.79001
G1 X90.818 Y115.839 E124.82785
G1 X104.161 Y129.182 E125.72677
G1 X103.367 Y129.182 E125.76461
G1 X90.818 Y116.633 E126.61002
G1 X90.818 Y117.427 E126.64786
G1 X102.573 Y129.182 E127.43977
G1 X101.778 Y129.182 E127.47760
G1 X90.818 Y118.222 E128.21599
G1 X90.818 Y119.016 E128.25383
G1 X100.984 Y129.182 E128.93871
G1 X100.190 Y129.182 E128.97655
G1 X90.818 Y119.810 E129.60792
G1 X90.818 Y120.605 E129.64575
G1 X99.395 Y129.182 E130.22361
G1 X98.601 Y129.182 E130.26145
G1 X90.818 Y121.399 E130.78579
G1 X90.818 Y122.193 E130.82363
G1 X97.807 Y129.182 E131.29446
G1 X97.012 Y129.182 E131.33230
G1 X90.818 Y122.988 E131.74961
G1 X90.818 Y123.782 E131.78745
G1 X96.218 Y129.182 E132.15126
G1 X95.424 Y129.182 E132.18910
G1 X90.818 Y124.576 E132.49939
G1 X90.818 Y125.371 E132.53723
G1 X94.629 Y129.182 E132.79401
G1 X93.835 Y129.182 E132.83185
G1 X90.818 Y126.165 E133.03512
G1 X90.818 Y126.959 E133.07296
G1 X93.041 Y129.182 E133.22272
G1 X92.246 Y129.182 E133.26056
G1 X90.818 Y127.754 E133.35681
G1 X90.818 Y128.548 E133.39465
G1 X91.703 Y129.433 E133.45427
G1 Z0.400 F13800.000
M104 S205 ; set temperature
G1 X91.703 Y129.700
G1 F1800.000
G1 X90.300 Y129.700 E133.52055
G1 X90.300 Y90.300 E135.38211
G1 X129.700 Y90.300 E137.24368
G1 X129.700 Y129.700 E139.10524
G1 X91.793 Y129.700 E140.89627
G1 E135.89627 F2400.00000
G92 E0
G1 X91.597 Y90.467 F13800.000
G1 E5.00000 F2400.00000
G1 F3000.000
G1 X90.718 Y91.346 E5.05893
G1 X90.718 Y92.137 E5.09639
G1 X92.137 Y90.718 E5.19149
G1 X92.927 Y90.718 E5.22895
G1 X90.718 Y92.927 E5.37702
G1 X90.718 Y93.717 E5.41448
G1 X93.717 Y90.718 E5.61554
G1 X94.508 Y90.718 E5.65300
G1 X90.718 Y94.508 E5.90702
G1 X90.718 Y95.298 E5.94448
G1 X95.298 Y90.718 E6.25149
G1 X96.088 Y90.718 E6.28895
G1 X90.718 Y96.088 E6.64893
G1 X90.718 Y96.879 E6.68639
G1 X96.879 Y90.718 E7.09935
G1 X97.669 Y90.718 E7.13681
G1 X90.718 Y97.669 E7.60275
G1 X90.718 Y98.459 E7.64021
G1 X98.459 Y90.718 E8.15912
G1 X99.250 Y90.718 E8.19658
G1 X90.718 Y99.250 E8.76846
G1 X90.718 Y100.040 E8.80593
G1 X100.040 Y90.718 E9.43079
G1 X100.830 Y90.718 E9.46825
G1 X90.718 Y100.830 E10.14609
G1 X90.718 Y101.621 E10.18355
G1 X101.621 Y90.718 E10.91437
G1 X102.411 Y90.718 E10.95183
G1 X90.718 Y102.411 E11.73562
G1 X90.718 Y103.201 E11.77308
G1 X103.201 Y90.718 E12.60985
G1 X103.992 Y90.718 E12.64731
G1 X90.718 Y103.992 E13.53706
G1 X90.718 Y104.782 E13.57452
G1 X104.782 Y90.718 E14.51724
G1 X105.572 Y90.718 E14.55470
G1 X90.718 Y105.572 E15.55040
G1 X90.718 Y106.363 E15.58786
G1 X106.363 Y90.718 E16.63654
G1 X107.153 Y90.718 E16.67400
G1 X90.718 Y107.153 E17.77565
G1 X90.718 Y107.943 E17.81311
G1 X107.943 Y90.718 E18.96774
G1 X108.734 Y90.718 E19.00520
G1 X90.718 Y108.734 E20.21281
G1 X90.718 Y109.524 E20.25027
G1 X109.524 Y90.718 E21.51085
G1 X110.314 Y90.718 E21.54831
G1 X90.718 Y110.314 E22.86187
G1 X90.718 Y111.105 E22.89933
G1 X111.105 Y90.718 E24.26586
G1 X111.895 Y90.718 E24.30332
G1 X90.718 Y111.895 E25.72283
G1 X90.718 Y112.685 E25.76029
G1 X112.685 Y90.718 E27.23278
G1 X113.476 Y90.718 E27.27024
G1 X90.718 Y113.476 E28.79571
G1 X90.718 Y114.266 E28.83317
G1 X114.266 Y90.718 E30.41161
G1 X115.056 Y90.718 E30.44907
G1 X90.718 Y115.056 E32.08049
G1 X90.718 Y115.847 E32.11795
G1 X115.847 Y90.718 E33.80234
G1 X116.637 Y90.718 E33.83980
G1 X90.718 Y116.637 E35.57717
G1 X90.718 Y117.427 E35.61463
G1 X117.427 Y90.718 E37.40498
G1 X118.218 Y90.718 E37.44244
G1 X90.718 Y118.218 E39.28576
G1 X90.718 Y119.008 E39.32322
G1 X119.008 Y90.718 E41.21952
G1 X119.798 Y90.718 E41.25698
G1 X90.718 Y119.798 E43.20626
G1 X90.718 Y120.588 E43.24372
G1 X120.589 Y90.718 E45.24597
G1 X121.379 Y90.718 E45.28343
G1 X90.718 Y121.379 E47.33866
G1 X90.718 Y122.169 E47.37612
G1 X122.169 Y90.718 E49.48433
G1 X122.960 Y90.718 E49.52179
G1 X90.718 Y122.959 E51.68297
G1 X90.718 Y123.750 E51.72043
G1 X123.750 Y90.718 E53.93459
G1 X124.540 Y90.718 E53.97205
G1 X90.718 Y124.540 E56.23918
G1 X90.718 Y125.330 E56.27664
G1 X125.330 Y90.718 E58.59676
G1 X126.121 Y90.718 E58.63422
G1 X90.718 Y126.121 E61.00731
G1 X90.718 Y126.911 E61.04477
G1 X126.911 Y90.718 E63.47083
G1 X127.701 Y90.718 E63.50829
G1 X90.718 Y127.701 E65.98733
G1 X90.718 Y128.492 E66.02479
G1 X128.492 Y90.718 E68.55681
G1 X129.282 Y90.718 E68.59427
G1 X90.718 Y129.282 E71.17926
G1 X91.508 Y129.282 E71.21672
G1 X129.282 Y91.508 E73.74874
G1 X129.282 Y92.298 E73.78620
G1 X92.298 Y129.282 E76.26525
G1 X93.089 Y129.282 E76.30271
G1 X129.282 Y93.089 E78.72878
G1 X129.282 Y93.879 E78.76624
G1 X93.879 Y129.282 E81.13933
G1 X94.669 Y129.282 E81.17679
G1 X129.282 Y94.669 E83.49691
G1 X129.282 Y95.460 E83.53437
G1 X95.460 Y129.282 E85.80151
G1 X96.250 Y129.282 E85.83897
G1 X129.282 Y96.250 E88.05314
G1 X129.282 Y97.040 E88.09060
G1 X97.040 Y129.282 E90.25178
G1 X97.831 Y129.282 E90.28924
G1 X129.282 Y97.831 E92.39745
G1 X129.282 Y98.621 E92.43491
G1 X98.621 Y129.282 E94.49015
G1 X99.411 Y129.282 E94.52761
G1 X129.282 Y99.411 E96.52987
G1 X129.282 Y100.202 E96.56733
G1 X100.202 Y129.282 E98.51661
G1 X100.992 Y129.282 E98.55407
G1 X129.282 Y100.992 E100.45037
G1 X129.282 Y101.782 E100.48783
G1 X101.782 Y129.282 E102.33116
G1 X102.573 Y129.282 E102.36862
G1 X129.282 Y102.573 E104.15898
G1 X129.282 Y103.363 E104.19644
G1 X103.363 Y129.282 E105.93381
G1 X104.153 Y129.282 E105.97127
G1 X129.282 Y104.153 E107.65567
G1 X129.282 Y104.944 E107.69313
G1 X104.944 Y129.282 E109.32455
G1 X105.734 Y129.282 E109.36201
G1 X129.282 Y105.734 E110.94046
G1 X129.282 Y106.524 E110.97792
G1 X106.524 Y129.282 E112.50339
G1 X107.315 Y129.282 E112.54085
G1 X129.282 Y107.315 E114.01334
G1 X129.282 Y108.105 E114.05080
G1 X108.105 Y129.282 E115.47032
G1 X108.895 Y129.282 E115.50778
G1 X129.282 Y108.895 E116.87432
G1 X129.282 Y109.686 E116.91178
G1 X109.686 Y129.282 E118.22534
G1 X110.476 Y129.282 E118.26280
G1 X129.282 Y110.476 E119.52339
G1 X129.282 Y111.266 E119.56085
G1 X111.266 Y129.282 E120.76846
G1 X112.057 Y129.282 E120.80592
G1 X129.282 Y112.057 E121.96056
G1 X129.282 Y112.847 E121.99802
G1 X112.847 Y129.282 E123.09967
G1 X113.637 Y129.282 E123.13713
G1 X129.282 Y113.637 E124.18581
G1 X129.282 Y114.428 E124.22327
G1 X114.428 Y129.282 E125.21898
G1 X115.218 Y129.282 E125.25644
G1 X129.282 Y115.218 E126.19917
G1 X129.282 Y116.008 E126.23663
G1 X116.008 Y129.282 E127.12638
G1 X116.799 Y129.282 E127.16384
G1 X129.282 Y116.799 E128.00062
G1 X129.282 Y117.589 E128.03808
G1 X117.589 Y129.282 E128.82187
G1 X118.379 Y129.282 E128.85933
G1 X129.282 Y118.379 E129.59016
G1 X129.282 Y119.170 E129.62762
G1 X119.170 Y129.282 E130.30546
G1 X119.960 Y129.282 E130.34292
G1 X129.282 Y119.960 E130.96779
G1 X129.282 Y120.750 E131.00525
G1 X120.750 Y129.282 E131.57715
G1 X121.541 Y129.282 E131.61461
G1 X129.282 Y121.541 E132.13352
G1 X129.282 Y122.331 E132.17098
G1 X122.331 Y129.282 E132.63692
G1 X123.121 Y129.282 E132.67438
G1 X129.282 Y123.121 E133.08735
G1 X129.282 Y123.912 E133.12481
G1 X123.912 Y129.282 E133.48479
G1 X124.702 Y129.282 E133.52225
G1 X129.282 Y124.702 E133.82926
G1 X129.282 Y125.492 E133.86672
G1 X125.492 Y129.282 E134.12076
G1 X126.283 Y129.282 E134.15822
G1 X129.282 Y126.283 E134.35927
G1 X129.282 Y127.073 E134.39673
G1 X127.073 Y129.282 E134.54482
G1 X127.863 Y129.282 E134.58228
G1 X129.282 Y127.863 E134.67738
G1 X129.282 Y128.654 E134.71484
G1 X128.403 Y129.533 E134.77377
M106 S255
G1 Z0.600 F13800.000
G1 X128.403 Y129.700
G1 F1800.000
G1 X90.300 Y129.700 E136.57406
G1 X90.300 Y90.300 E138.43562
G1 X129.700 Y90.300 E140.29718
G1 X129.700 Y129.700 E142.15874
G1 X128.493 Y129.700 E142.21577
G1 E137.21577 F2400.00000
G92 E0
G1 X129.533 Y91.597 F13800.000
G1 E5.00000 F2400.00000
G1 F1800.000
G1 X128.654 Y90.718 E5.05893
G1 X127.863 Y90.718 E5.09639
G1 X129.282 Y92.137 E5.19150
G1 X129.282 Y92.927 E5.22896
G1 X127.073 Y90.718 E5.37704
G1 X126.283 Y90.718 E5.41450
G1 X129.282 Y93.717 E5.61556
G1 X129.282 Y94.508 E5.65302
G1 X125.492 Y90.718 E5.90705
G1 X124.702 Y90.718 E5.94451
G1 X129.282 Y95.298 E6.25152
G1 X129.282 Y96.088 E6.28898
G1 X123.912 Y90.718 E6.64897
G1 X123.121 Y90.718 E6.68643
G1 X129.282 Y96.879 E7.09939
G1 X129.282 Y97.669 E7.13685
G1 X122.331 Y90.718 E7.60279
G1 X121.541 Y90.718 E7.64025
G1 X129.282 Y98.459 E8.15917
G1 X129.282 Y99.250 E8.19663
G1 X120.750 Y90.718 E8.76852
G1 X119.960 Y90.718 E8.80598
G1 X129.282 Y100.040 E9.43085
G1 X129.282 Y100.830 E9.46831
G1 X119.170 Y90.718 E10.14616
G1 X118.379 Y90.718 E10.18362
G1 X129.282 Y101.621 E10.91444
G1 X129.282 Y102.411 E10.95190
G1 X117.589 Y90.718 E11.73570
G1 X116.799 Y90.718 E11.77316
G1 X129.282 Y103.201 E12.60993
G1 X129.282 Y103.992 E12.64739
G1 X116.008 Y90.718 E13.53714
G1 X115.218 Y90.718 E13.57460
G1 X129.282 Y104.782 E14.51733
G1 X129.282 Y105.572 E14.55479
G1 X114.428 Y90.718 E15.55050
G1 X113.637 Y90.718 E15.58796
G1 X129.282 Y106.363 E16.63664
G1 X129.282 Y107.153 E16.67410
G1 X112.847 Y90.718 E17.77576
G1 X112.057 Y90.718 E17.81322
G1 X129.282 Y107.943 E18.96785
G1 X129.282 Y108.734 E19.00531
G1 X111.266 Y90.718 E20.21292
G1 X110.476 Y90.718 E20.25038
G1 X129.282 Y109.524 E21.51097
G1 X129.282 Y110.314 E21.54843
G1 X109.686 Y90.718 E22.86199
G1 X108.895 Y90.718 E22.89945
G1 X129.282 Y111.105 E24.26599
G1 X129.282 Y111.895 E24.30345
G1 X108.105 Y90.718 E25.72297
G1 X107.315 Y90.718 E25.76043
G1 X129.282 Y112.685 E27.23292
G1 X129.282 Y113.476 E27.27038
G1 X106.524 Y90.718 E28.79585
G1 X105.734 Y90.718 E28.83331
G1 X129.282 Y114.266 E30.41176
G1 X129.282 Y115.056 E30.44922
G1 X104.944 Y90.718 E32.08064
G1 X104.153 Y90.718 E32.11810
G1 X129.282 Y115.847 E33.80250
G1 X129.282 Y116.637 E33.83996
G1 X103.363 Y90.718 E35.57734
G1 X102.573 Y90.718 E35.61480
G1 X129.282 Y117.427 E37.40515
G1 X129.282 Y118.218 E37.44261
G1 X101.782 Y90.718 E39.28594
G1 X100.992 Y90.718 E39.32340
G1 X129.282 Y119.008 E41.21970
G1 X129.282 Y119.798 E41.25716
